X:451
T:Helena
C:Colin Hume, 1988
L:1/4
M:2/2
R:Reel
S:Colin Hume's website,  colinhume.com  - chords can also be printed below the stave.
Q:1/2=75
N:Please use my chords and not those in Barnes 1, some of which are wrong - particularly A bar 4.
%%MIDI ratio 3 1
K:G
%%text Sweet and Graceful
P:A
V:1
%%MIDI program 48       % String Ensemble 1
%%MIDI control 10 0     % Left speaker
%%MIDI chordprog 48     % String Ensemble 1
%%MIDI chordvol 60
%%MIDI bassprog 43      % Contrabass
%%MIDI bassvol 30
%%MIDI gchord c2cc
|: "G"G>A "/"BG | "Bm"dB "Em"GD | "C"E>F "/"GA | "D"D2- "/"DA/B/ |\
"Am"c2- "/"cB/c/ | "G"d2- "/"dG | "C"e>f "Em"gB |1 "D7"A2- "/"AD :|2 "D7"A2 "G"G2 ||
V:2
%%MIDI channel 8
%%MIDI program 48       % String Ensemble 1
%%MIDI chordprog 48     % String Ensemble 1
%%MIDI chordvol 30
%%MIDI bassprog 43      % Contrabass
%%MIDI bassvol 60
%%MIDI control 10 127   % Right speaker
|: "G"B,>C "/"DC | "Bm"B,D "Em"ED | "C"C>D "/"EC | "D"D2- "/"DF/G/ |\
"Am"A2- "/"AG/A/ | "G"B2- "/"BG | "C"c>d "Em"eG |1 "D7"F>E "/"DC :|2 "D7"DC "G"B,2 ||
P:B
V:1
|: "Am"cB/c/ "D"Ad | "C"cB/c/ "D"AD | "G"Gd "Em"dc/B/ | "A7"B2 "D7"A2 |\
"G"G3/B/ "G7"dG | "C"e/d/c/B/ "D"AD | "C"Ec "Am"cB/c/ | "D7"A2 "G"G2 :|
V:2
|: "Am"E2"D"F2 | "C"G2 "D"F2 | "G"GB "Em"BA/G/ | "A7"G2 "D7"F2 |\
"G"G>D "G7"B,G | "C"c/B/A/G/ "D"FD | "C"CE "Am"AE | "D7"DC "G"B,2 :|

